lib/icons/description.svg

<svg width="12" height="15" viewBox="0 0 12 15" fill="none" xmlns="http://www.w3.org/2000/svg">
<path fill-rule="evenodd" clip-rule="evenodd" d="M1 1.27051H11V13.2705H1L1 1.27051ZM0 1.27051C0 0.718223 0.447715 0.270508 1 0.270508H11C11.5523 0.270508 12 0.718223 12 1.27051V13.2705C12 13.8228 11.5523 14.2705 11 14.2705H1C0.447715 14.2705 0 13.8228 0 13.2705V1.27051ZM3 3.77051C2.72386 3.77051 2.5 3.99437 2.5 4.27051C2.5 4.54665 2.72386 4.77051 3 4.77051H7C7.27614 4.77051 7.5 4.54665 7.5 4.27051C7.5 3.99437 7.27614 3.77051 7 3.77051H3ZM3 6.77051C2.72386 6.77051 2.5 6.99437 2.5 7.27051C2.5 7.54665 2.72386 7.77051 3 7.77051H8C8.27614 7.77051 8.5 7.54665 8.5 7.27051C8.5 6.99437 8.27614 6.77051 8 6.77051H3ZM2.5 10.2705C2.5 9.99437 2.72386 9.77051 3 9.77051H5C5.27614 9.77051 5.5 9.99437 5.5 10.2705C5.5 10.5466 5.27614 10.7705 5 10.7705H3C2.72386 10.7705 2.5 10.5466 2.5 10.2705Z" fill="#7A859E"/>
</svg>

<svg width="12" height="15" fill="none" xmlns="http://www.w3.org/2000/svg"><path fill-rule="evenodd" clip-rule="evenodd" d="M1 1.27h10v12H1v-12Zm-1 0a1 1 0 0 1 1-1h10a1 1 0 0 1 1 1v12a1 1 0 0 1-1 1H1a1 1 0 0 1-1-1v-12Zm3 2.5a.5.5 0 0 0 0 1h4a.5.5 0 0 0 0-1H3Zm0 3a.5.5 0 0 0 0 1h5a.5.5 0 0 0 0-1H3Zm-.5 3.5a.5.5 0 0 1 .5-.5h2a.5.5 0 0 1 0 1H3a.5.5 0 0 1-.5-.5Z" fill="#7A859E"/></svg>
